X:1
T:Evening Hour, 77.77.77.77.77
T:Evening Hour, 77.77.77.77.77
T:Samuel Prowse Warren, 1896
T:Public Domain Courtesy of the Cyber Hymnal™
C:Samuel Prowse Warren, 1896
Z:Public Domain
Z:Courtesy of the Cyber Hymnal™
%%score ( 1 2 ) ( 3 4 )
L:1/8
Q:1/4=107
M:4/4
K:F
V:1 treble 
V:2 treble 
V:3 bass 
V:4 bass 
V:1
 [FA]2 [FA]2 [EG]2 [FA]2 | [Fc]3 [EB] ([EB]2 [FA]2) | [EG]2 F2 [CE]2 [CF]2 | [FA]3 [FG] [EG]4 | %4
 [FA]2 A2 [^G=B]2 E2 | [Ec]3 [Ec] (=B2 E2) | [DA]2 [F=B]2 [Ec]2 [Fd]2 | [EG]2 [D=B]2 [Cc]4 | %8
 [Ed]2 [Fc]2 [GB]2 [FA]2 | B3 z A (A2 G2) | [Ed]2 [Fc]2 [CE]2 [CF]2 | [CG]3 [CA] [CG]4 | %12
 [A,F]2 [=B,F]2 [CG]2 C2 | A3 z A [FB]4 | [^FA]2 [DA]2 [DB]2 G2 | [Fc]2 [_EF]2 [Dd]4 | %16
 [FG]2 [Ed]2 [Fc]2 [FA]2 | G2 [^FA]2 (c2 B2) | [GA]2 [^FA]2 [GB]2 [DG]2 | [CE]3 [CE] [CF]4 |] %20
V:2
 x8 | x8 | x2 F2 x4 | x8 | x2 A2 E2 x2 | x4 E4 | x8 | x8 | x8 | E2 F2 E4 x | x8 | x8 | x6 C2 | %13
 C2 F2 x5 | x6 G2 | x8 | x8 | G2 G4 x2 | x8 | x8 |] %20
V:3
 [F,C]2 [F,C]2 [C,C]2 [F,C]2 | [A,C]3 [G,C] C4 | [B,C]2 [A,C]2 [G,B,]2 [F,A,]2 | %3
 [D,C]2 [G,=B,]2 [C,C]4 | [F,C]2 [F,C]2 [E,E]2 [E,D]2 | [A,C]2 [C,A,]2 (A,2 ^G,2) | %6
 [F,A,]2 [D,A,]2 A,2 [F,A,]2 | G,2 [G,,F,]2 [C,E,]4 | [C,B,]2 [D,A,]2 [E,G,]2 [F,C]2 | %9
 [G,C]2 [A,C]2 [B,C]4 x | [B,,C]2 [A,,C]2 [G,,B,]2 [F,,A,]2 | [C,E,]3 [C,F,] [C,E,]4 | %12
 [D,F,]2 (G,F,) [C,E,]2 [E,G,]2 | [F,A,]2 [_E,C]2 [D,B,]4 x | [D,D]2 [C,^F,]2 [B,,G,]2 [B,,D]2 | %15
 [A,,C]2 [F,A,]2 [B,,B,]4 | [B,D]2 [G,B,]2 [A,C]2 [F,C]2 | [_E,C]2 [D,C]2 (_E2 D2) | %18
 [A,,^C]2 [D,=C]2 [G,,B,]2 [B,,B,]2 | [C,G,]3 [C,B,] [F,A,]4 |] %20
V:4
 x8 | x4 (G,2 F,2) | x8 | x8 | x8 | x4 E,4 | x4 A,2 x2 | G,2 x6 | x8 | x9 | x8 | x8 | x2 D,2 x4 | %13
 x9 | x8 | x8 | x8 | x4 G,,4 | x8 | x8 |] %20

